icons/action/icon_filter_m_black.svg

<svg width="24" height="24" viewBox="0 0 24 24" xmlns="http://www.w3.org/2000/svg"><g fill="none" fill-rule="evenodd"><path d="M0 0h24v24H0z"/><path d="M3 20c1.654 0 3-1.346 3-3s-1.346-3-3-3-3 1.346-3 3 1.346 3 3 3zm0-5c1.103 0 2 .897 2 2s-.897 2-2 2-2-.897-2-2 .897-2 2-2zm6-8c0 1.654 1.346 3 3 3s3-1.346 3-3-1.346-3-3-3-3 1.346-3 3zm5 0c0 1.103-.897 2-2 2s-2-.897-2-2 .897-2 2-2 2 .897 2 2zm4 6c0 1.654 1.346 3 3 3s3-1.346 3-3-1.346-3-3-3-3 1.346-3 3zm3-2c1.103 0 2 .897 2 2s-.897 2-2 2-2-.897-2-2 .897-2 2-2z" fill="#0B1F35" fill-rule="nonzero"/><path d="M2 19.289V23h2v-3.711c-.315.139-.656.21-1 .211-.356 0-.693-.077-1-.211zm0-4.578c.315-.139.656-.21 1-.211.356 0 .693.077 1 .211V1H2v13.711zm9-10c.315-.139.656-.21 1-.211.356 0 .693.077 1 .211V1h-2v3.711zm0 4.578V23h2V9.289c-.315.139-.656.21-1 .211-.356 0-.693-.077-1-.211zm9 1.422c.315-.139.656-.21 1-.211.356 0 .693.077 1 .211V1h-2v9.711zm0 4.578V23h2v-7.711c-.315.139-.656.21-1 .211-.356 0-.693-.077-1-.211z" fill="#0B1F35" fill-rule="nonzero" opacity=".3"/></g></svg>

<?xml version="1.0" encoding="UTF-8"?>
<svg width="24px" height="24px" viewBox="0 0 24 24" version="1.1" xmlns="http://www.w3.org/2000/svg" xmlns:xlink="http://www.w3.org/1999/xlink">
    <!-- Generator: Sketch 48.2 (47327) - http://www.bohemiancoding.com/sketch -->
    <title>icon_filter_m_black</title>
    <desc>Created with Sketch.</desc>
    <defs></defs>
    <g id="Artboard-Copy" stroke="none" stroke-width="1" fill="none" fill-rule="evenodd" transform="translate(-183.000000, -253.000000)">
        <g id="icon_filter_m_black" transform="translate(183.000000, 253.000000)">
            <polygon id="Shape" points="0 0 24 0 24 24 0 24"></polygon>
            <path d="M3,20 C4.654,20 6,18.654 6,17 C6,15.346 4.654,14 3,14 C1.346,14 0,15.346 0,17 C0,18.654 1.346,20 3,20 Z M3,15 C4.103,15 5,15.897 5,17 C5,18.103 4.103,19 3,19 C1.897,19 1,18.103 1,17 C1,15.897 1.897,15 3,15 Z M9,7 C9,8.654 10.346,10 12,10 C13.654,10 15,8.654 15,7 C15,5.346 13.654,4 12,4 C10.346,4 9,5.346 9,7 Z M14,7 C14,8.103 13.103,9 12,9 C10.897,9 10,8.103 10,7 C10,5.897 10.897,5 12,5 C13.103,5 14,5.897 14,7 Z M18,13 C18,14.654 19.346,16 21,16 C22.654,16 24,14.654 24,13 C24,11.346 22.654,10 21,10 C19.346,10 18,11.346 18,13 Z M21,11 C22.103,11 23,11.897 23,13 C23,14.103 22.103,15 21,15 C19.897,15 19,14.103 19,13 C19,11.897 19.897,11 21,11 Z" id="Shape" fill="#0B1F35" fill-rule="nonzero"></path>
            <path d="M2,19.289 L2,23 L4,23 L4,19.289 C3.68483281,19.4276931 3.34433401,19.4995383 3,19.5 C2.644,19.5 2.307,19.423 2,19.289 Z M2,14.711 C2.31516719,14.5723069 2.65566599,14.5004617 3,14.5 C3.356,14.5 3.693,14.577 4,14.711 L4,1 L2,1 L2,14.711 Z M11,4.711 C11.3151672,4.57230694 11.655666,4.5004617 12,4.5 C12.356,4.5 12.693,4.577 13,4.711 L13,1 L11,1 L11,4.711 Z M11,9.289 L11,23 L13,23 L13,9.289 C12.6848328,9.42769306 12.344334,9.4995383 12,9.5 C11.644,9.5 11.307,9.423 11,9.289 Z M20,10.711 C20.3151672,10.5723069 20.655666,10.5004617 21,10.5 C21.356,10.5 21.693,10.577 22,10.711 L22,1 L20,1 L20,10.711 Z M20,15.289 L20,23 L22,23 L22,15.289 C21.6848328,15.4276931 21.344334,15.4995383 21,15.5 C20.644,15.5 20.307,15.423 20,15.289 Z" id="Shape" fill="#0B1F35" fill-rule="nonzero" opacity="0.3"></path>
        </g>
    </g>
</svg>
